X:18474
T:Waltz. CJF.128
M:3/8
L:1/8
Q:30
S: C.J.Fox MS, 1829/33, Beverley,E.Yorks.
R:Waltz
O:England
A:East Yorkshire
B:Kidson Coll.Mitchell Lib.M1805
Z:P J Headford 200
K:G
d|B(d/e/)d|(gd).d|a(a/b/)a|bgg|B(d/e/)d|(gd).d|\
a(a/b/)a|g2:||:!g|f{f/}(f/e/)d| f{f/}(f/e/)d|gbd'|gbd'|
f{f/}(f/e/)d|f{f/}(f/e/)d|gbd'|g2:||:!d'|d'2b|b2g|\
(f/g/).a.a|(f/g/).a.a|d'2b|b2g|(f/g/).a.a|g2:||


